X: 31354
T: COTILLION No. 26. PAUL JONES' SETT tune 6
C:
%R: jig
B: Elias Howe "The Musician's Companion" Part 3 1844 p.135 #4
S: http://imslp.org/wiki/The_Musician's_Companion_(Howe,_Elias)
Z: 2015 John Chambers <jc:trillian.mit.edu>
M: 6/8
L: 1/8
K: C
% - - - - - - - - - - - - - - - - - - - - - - - - - - - - -
G |\
cGe cGe | ced cBA | GEc GEc | Adc BAG |\
cGe cGe | ced cBA | GEc DdB | ccc c2 H|]
g |\
ege ccc | faf ddd | BdB GGG | Adc BAG |\
ege ccc | faf ddd | BdB GAc | c3 "^D.C."c2 |]
% - - - - - - - - - - Dance description - - - - - - - - - -
%%begintext align
%% First 2 forward and back,
%% swing half round in the centre,
%% swing 6 round that couple,
%% balance 4 with partners,
%% ladies chain,
%% promenade 4.
%% Next 2 the same.
%%endtext
% - - - - - - - - - - - - - - - - - - - - - - - - - - - - -
%%sep 1 1 300
